images/sprite.svg

<svg width="0" height="0" class="hidden">
  <symbol xmlns="http://www.w3.org/2000/svg" xmlns:xlink="http://www.w3.org/1999/xlink" viewBox="0 0 19px 16px" id="ic_arrow">
    <path fill-rule="evenodd" fill="currentColor" d="M8.442,0.543 C8.825,0.179 9.462,0.179 9.858,0.543 C10.241,0.894 10.241,1.480 9.858,1.830 L4.117,7.082 L17.495,7.082 C18.047,7.083 18.486,7.486 18.486,7.993 C18.486,8.501 18.047,8.917 17.495,8.917 L4.117,8.917 L9.858,14.156 C10.241,14.520 10.241,15.106 9.858,15.457 C9.462,15.821 8.824,15.821 8.442,15.457 L1.000,8.644 C0.604,8.293 0.604,7.707 1.000,7.356 L8.442,0.543 Z"></path>
  </symbol>
  <symbol xmlns="http://www.w3.org/2000/svg" xmlns:xlink="http://www.w3.org/1999/xlink" viewBox="0 0 20px 24px" id="ic_cart">
    <path fill-rule="evenodd" fill="currentColor" d="M18.569,6.670 C18.536,6.284 18.228,5.987 17.858,5.987 L14.289,5.987 L14.289,4.487 C14.289,2.004 12.367,-0.015 10.005,-0.015 C7.643,-0.015 5.721,2.004 5.721,4.487 L5.721,5.987 L2.152,5.987 C1.782,5.987 1.474,6.284 1.441,6.670 L0.013,23.178 C-0.005,23.388 0.061,23.596 0.197,23.751 C0.332,23.907 0.523,23.996 0.724,23.996 L19.286,23.996 C19.487,23.996 19.678,23.907 19.813,23.751 C19.947,23.596 20.015,23.388 19.997,23.178 L18.569,6.670 ZM7.149,4.487 C7.149,2.831 8.431,1.485 10.005,1.485 C11.579,1.485 12.861,2.831 12.861,4.487 L12.861,5.987 L7.149,5.987 L7.149,4.487 ZM1.507,22.495 L2.804,7.488 L5.721,7.488 L5.721,9.197 C5.296,9.457 5.008,9.936 5.008,10.490 C5.008,11.318 5.647,11.990 6.435,11.990 C7.224,11.990 7.863,11.318 7.863,10.490 C7.863,9.936 7.575,9.457 7.149,9.197 L7.149,7.488 L12.861,7.488 L12.861,9.197 C12.435,9.457 12.147,9.935 12.147,10.490 C12.147,11.318 12.787,11.990 13.575,11.990 C14.362,11.990 15.003,11.318 15.003,10.490 C15.003,9.936 14.714,9.457 14.289,9.197 L14.289,7.488 L17.206,7.488 L18.504,22.495 L1.507,22.495 Z"></path>
  </symbol>
  <symbol xmlns="http://www.w3.org/2000/svg" xmlns:xlink="http://www.w3.org/1999/xlink" viewBox="0 0 20px 20px" id="ic_instagram">
    <path fill-rule="evenodd" fill="currentColor" d="M14.909,20.000 L4.758,20.000 C2.130,20.000 -0.000,17.834 -0.000,15.161 L-0.000,4.839 C-0.000,2.166 2.130,-0.000 4.758,-0.000 L14.909,-0.000 C17.536,-0.000 19.667,2.166 19.667,4.839 L19.667,15.161 C19.667,17.834 17.536,20.000 14.909,20.000 ZM9.833,5.806 C7.556,5.806 5.710,7.684 5.710,10.000 C5.710,12.316 7.556,14.194 9.833,14.194 C12.111,14.194 13.957,12.316 13.957,10.000 C13.957,7.684 12.111,5.806 9.833,5.806 ZM15.226,3.226 C14.525,3.226 13.957,3.803 13.957,4.516 C13.957,5.229 14.525,5.806 15.226,5.806 C15.927,5.806 16.495,5.229 16.495,4.516 C16.495,3.803 15.927,3.226 15.226,3.226 Z"></path>
  </symbol>
  <symbol xmlns="http://www.w3.org/2000/svg" xmlns:xlink="http://www.w3.org/1999/xlink" viewBox="0 0 13px 15px" id="ic_location">
    <path fill-rule="evenodd" fill="currentColor" d="M6.500,15.000 C2.169,11.587 -0.000,8.640 -0.000,6.150 C-0.000,2.415 3.087,-0.000 6.500,-0.000 C9.912,-0.000 13.000,2.415 13.000,6.150 C13.000,8.640 10.831,11.587 6.500,15.000 ZM6.500,3.894 C5.200,3.894 4.136,4.893 4.136,6.114 C4.136,7.334 5.200,8.333 6.500,8.333 C7.800,8.333 8.864,7.334 8.864,6.114 C8.864,4.893 7.800,3.894 6.500,3.894 Z"></path>
  </symbol>
  <symbol xmlns="http://www.w3.org/2000/svg" xmlns:xlink="http://www.w3.org/1999/xlink" viewBox="0 0 18px 18px" id="ic_menu">
    <path fill-rule="evenodd" fill="currentColor" d="M17.000,10.000 L1.000,10.000 C0.448,10.000 -0.000,9.552 -0.000,9.000 C-0.000,8.447 0.448,8.000 1.000,8.000 L17.000,8.000 C17.552,8.000 18.000,8.447 18.000,9.000 C18.000,9.552 17.552,10.000 17.000,10.000 ZM17.000,2.000 L1.000,2.000 C0.448,2.000 -0.000,1.552 -0.000,1.000 C-0.000,0.448 0.448,-0.000 1.000,-0.000 L17.000,-0.000 C17.552,-0.000 18.000,0.448 18.000,1.000 C18.000,1.552 17.552,2.000 17.000,2.000 ZM1.000,16.000 L17.000,16.000 C17.552,16.000 18.000,16.448 18.000,17.000 C18.000,17.552 17.552,18.000 17.000,18.000 L1.000,18.000 C0.448,18.000 -0.000,17.552 -0.000,17.000 C-0.000,16.448 0.448,16.000 1.000,16.000 Z"></path>
  </symbol>
  <symbol xmlns="http://www.w3.org/2000/svg" xmlns:xlink="http://www.w3.org/1999/xlink" viewBox="0 0 20px 21px" id="ic_order">
    <path fill-rule="evenodd" fill="currentColor" d="M10.658,19.359 L10.658,8.777 C10.809,8.742 11.006,8.647 11.164,8.584 L18.107,5.742 C18.290,5.670 18.442,5.583 18.642,5.537 L18.642,16.078 L17.654,16.488 C17.320,16.621 16.985,16.764 16.661,16.892 L13.657,18.123 C13.319,18.257 13.002,18.381 12.663,18.527 C12.326,18.673 12.009,18.785 11.673,18.935 C11.498,19.013 11.358,19.064 11.175,19.136 C11.001,19.205 10.804,19.282 10.658,19.359 L10.658,19.359 ZM1.358,5.537 C1.524,5.575 1.571,5.608 1.717,5.672 L4.280,6.726 L4.289,10.163 C4.411,11.024 5.421,10.925 5.605,10.345 C5.671,10.137 5.638,7.640 5.638,7.301 C5.810,7.315 7.225,7.926 7.495,8.033 L8.865,8.596 C9.022,8.658 9.195,8.743 9.341,8.777 L9.341,19.359 L1.358,16.078 L1.358,5.537 L1.358,5.537 ZM10.000,7.588 C10.115,7.588 10.821,7.277 10.982,7.213 L13.809,6.052 C14.466,5.791 15.053,5.539 15.708,5.279 C16.034,5.150 16.361,5.017 16.668,4.882 C16.821,4.814 16.967,4.761 17.137,4.693 C17.319,4.621 17.423,4.556 17.613,4.512 L17.154,4.313 C16.708,4.134 14.142,3.035 13.951,3.035 C13.787,3.035 7.048,6.095 6.625,6.193 C6.731,6.336 9.995,7.588 10.000,7.588 L10.000,7.588 ZM4.897,5.496 C4.753,5.496 3.355,4.889 3.039,4.763 C2.827,4.679 2.603,4.562 2.387,4.512 C2.395,4.506 2.409,4.489 2.413,4.496 L2.493,4.454 C2.528,4.437 2.574,4.419 2.609,4.405 L10.000,1.394 C10.002,1.394 12.120,2.199 12.222,2.338 L4.897,5.496 L4.897,5.496 ZM-0.000,4.676 L-0.000,16.324 C-0.000,17.035 0.321,17.108 0.823,17.308 L6.014,19.436 C6.430,19.606 9.741,21.000 9.959,21.000 C10.286,21.000 12.175,20.193 12.674,19.973 C13.087,19.791 13.540,19.615 13.957,19.448 L19.148,17.320 C19.668,17.113 20.000,17.045 20.000,16.324 L20.000,4.676 C20.000,3.965 19.679,3.891 19.177,3.691 C18.736,3.515 18.310,3.330 17.866,3.152 C16.431,2.576 14.086,1.649 12.674,1.026 C12.171,0.805 10.281,-0.000 9.959,-0.000 C9.734,-0.000 8.880,0.398 8.642,0.492 C6.059,1.515 3.431,2.651 0.852,3.679 C0.332,3.887 -0.000,3.954 -0.000,4.676 Z"></path>
  </symbol>
  <symbol xmlns="http://www.w3.org/2000/svg" xmlns:xlink="http://www.w3.org/1999/xlink" viewBox="0 0 15px 15px" id="ic_search">
    <path fill-rule="evenodd" fill="currentColor" d="M14.632,12.859 L11.374,9.600 C11.356,9.583 11.336,9.571 11.318,9.555 C11.959,8.582 12.333,7.418 12.333,6.166 C12.333,2.760 9.572,-0.001 6.167,-0.001 C2.761,-0.001 -0.000,2.760 -0.000,6.166 C-0.000,9.572 2.761,12.332 6.167,12.332 C7.419,12.332 8.583,11.958 9.555,11.318 C9.571,11.336 9.584,11.356 9.601,11.372 L12.860,14.631 C13.349,15.121 14.143,15.121 14.632,14.631 C15.122,14.142 15.122,13.348 14.632,12.859 ZM6.167,10.194 C3.941,10.194 2.138,8.391 2.138,6.166 C2.138,3.941 3.941,2.137 6.167,2.137 C8.392,2.137 10.195,3.941 10.195,6.166 C10.195,8.391 8.392,10.194 6.167,10.194 Z"></path>
  </symbol>
  <symbol xmlns="http://www.w3.org/2000/svg" xmlns:xlink="http://www.w3.org/1999/xlink" viewBox="0 0 13px 15px" id="ic_sort_arrow">
    <path fill-rule="evenodd" fill="currentColor" d="M12.753,8.470 C13.059,8.147 13.059,7.611 12.753,7.277 C12.458,6.955 11.966,6.955 11.671,7.277 L7.258,12.112 L7.258,0.846 C7.257,0.381 6.918,0.011 6.492,0.011 C6.065,0.011 5.715,0.381 5.715,0.846 L5.715,12.112 L1.313,7.277 C1.007,6.955 0.514,6.955 0.219,7.277 C-0.086,7.611 -0.086,8.148 0.219,8.470 L5.945,14.736 C6.240,15.070 6.732,15.070 7.027,14.736 L12.753,8.470 Z"></path>
  </symbol>
  <symbol xmlns="http://www.w3.org/2000/svg" xmlns:xlink="http://www.w3.org/1999/xlink" viewBox="0 0 15px 14px" id="ic_star">
    <path fill-rule="evenodd" fill="currentColor" d="M7.500,-0.001 L9.903,4.496 L15.008,5.346 L11.387,8.975 L12.140,13.996 L7.500,11.743 L2.859,13.996 L3.612,8.975 L-0.008,5.346 L5.097,4.496 L7.500,-0.001 Z"></path>
  </symbol>
  <symbol xmlns="http://www.w3.org/2000/svg" xmlns:xlink="http://www.w3.org/1999/xlink" viewBox="0 0 23px 27px" id="ic_user">
    <path fill-rule="evenodd" fill="currentColor" d="M21.377,24.846 L21.377,24.570 C21.377,22.729 19.908,21.232 18.104,21.232 C18.079,21.232 17.118,21.232 16.143,20.810 L12.547,26.032 C12.273,26.429 11.826,26.666 11.350,26.666 C11.350,26.666 11.350,26.666 11.350,26.666 C10.874,26.666 10.427,26.429 10.154,26.032 L6.557,20.809 C5.701,21.205 4.619,21.232 4.594,21.232 C2.790,21.232 1.321,22.729 1.321,24.570 L1.321,24.846 C0.882,24.496 0.459,24.127 0.057,23.734 C0.437,21.587 2.241,19.940 4.436,19.864 C4.460,19.862 7.898,19.966 8.411,16.201 C6.742,15.014 5.517,12.839 5.183,10.215 C5.117,10.151 5.062,10.073 5.025,9.981 C4.889,9.642 4.774,9.287 4.684,8.926 C4.257,7.216 4.388,5.447 5.053,3.944 C5.739,2.396 6.907,1.310 8.343,0.888 C8.643,0.799 8.956,0.742 9.276,0.717 C10.113,0.293 11.000,0.078 11.914,0.078 C15.410,0.078 18.253,3.205 18.253,7.049 C18.253,8.051 18.064,9.017 17.691,9.923 C17.652,10.019 17.593,10.100 17.522,10.165 C17.316,11.847 16.738,13.401 15.840,14.640 C15.379,15.277 14.855,15.802 14.287,16.206 C14.798,19.965 18.238,19.861 18.262,19.864 C20.457,19.940 22.261,21.587 22.641,23.734 C22.239,24.127 21.816,24.496 21.377,24.846 ZM16.907,7.049 C16.907,3.962 14.668,1.450 11.914,1.450 C11.172,1.450 10.451,1.635 9.770,2.000 C9.682,2.047 9.586,2.074 9.487,2.078 C9.221,2.091 8.962,2.133 8.716,2.206 C6.515,2.854 5.294,5.672 5.971,8.511 C6.698,7.733 7.228,6.774 7.493,5.733 C7.584,5.380 7.884,5.127 8.241,5.103 C8.597,5.081 8.924,5.291 9.057,5.628 C9.142,5.846 9.286,6.035 9.471,6.177 C9.688,6.342 9.947,6.429 10.220,6.429 L14.806,6.429 C15.625,6.429 16.367,6.773 16.901,7.326 C16.905,7.234 16.907,7.142 16.907,7.049 ZM16.262,8.781 C16.262,8.776 16.263,8.771 16.263,8.766 C16.014,8.198 15.455,7.801 14.806,7.801 L10.220,7.801 C9.655,7.801 9.118,7.620 8.666,7.276 C8.593,7.221 8.524,7.162 8.458,7.099 C8.021,8.165 7.349,9.125 6.500,9.896 C6.682,11.509 7.256,12.981 8.131,14.072 C9.028,15.189 10.171,15.805 11.350,15.804 C14.059,15.804 16.262,12.653 16.262,8.781 ZM13.022,16.878 C12.485,17.075 11.924,17.177 11.350,17.177 C10.771,17.177 10.210,17.071 9.677,16.874 C9.431,18.184 8.718,19.326 7.721,20.112 L11.255,25.244 C11.278,25.277 11.310,25.294 11.350,25.294 C11.390,25.294 11.422,25.277 11.445,25.243 L14.978,20.113 C13.982,19.328 13.268,18.187 13.022,16.878 Z"></path>
  </symbol>
  <symbol xmlns="http://www.w3.org/2000/svg" xmlns:xlink="http://www.w3.org/1999/xlink" viewBox="0 0 33px 30px" id="ic_star_big">
    <path fill-rule="evenodd" fill="currentColor" d="M16.684,-0.000 L21.902,9.635 L32.991,11.456 L25.127,19.233 L26.762,29.994 L16.684,25.165 L6.606,29.994 L8.241,19.233 L0.378,11.456 L11.466,9.635 L16.684,-0.000 Z"></path>
  </symbol>
  <symbol xmlns="http://www.w3.org/2000/svg" xmlns:xlink="http://www.w3.org/1999/xlink" viewBox="0 0 25px 14px" id="ic_vkontakte">
    <path fill-rule="evenodd" fill="currentColor" d="M21.523,8.901 C22.353,9.703 23.228,10.457 23.973,11.340 C24.301,11.732 24.612,12.137 24.850,12.592 C25.188,13.239 24.882,13.951 24.296,13.989 L20.652,13.988 C19.713,14.065 18.963,13.691 18.333,13.055 C17.828,12.546 17.361,12.005 16.876,11.479 C16.677,11.264 16.469,11.062 16.220,10.902 C15.723,10.583 15.291,10.681 15.007,11.194 C14.717,11.716 14.652,12.295 14.623,12.876 C14.584,13.726 14.325,13.949 13.463,13.988 C11.621,14.074 9.873,13.798 8.250,12.879 C6.818,12.067 5.708,10.923 4.741,9.627 C2.860,7.104 1.419,4.332 0.124,1.482 C-0.167,0.839 0.046,0.495 0.762,0.483 C1.951,0.460 3.139,0.462 4.329,0.481 C4.812,0.488 5.132,0.763 5.319,1.214 C5.962,2.779 6.749,4.268 7.736,5.648 C7.999,6.016 8.267,6.383 8.649,6.642 C9.072,6.928 9.394,6.834 9.592,6.368 C9.719,6.072 9.774,5.754 9.802,5.438 C9.896,4.349 9.909,3.263 9.744,2.178 C9.642,1.501 9.257,1.063 8.575,0.934 C8.226,0.869 8.278,0.741 8.447,0.544 C8.740,0.205 9.015,-0.006 9.564,-0.006 L13.682,-0.006 C14.330,0.121 14.474,0.408 14.563,1.054 L14.567,5.582 C14.559,5.832 14.693,6.573 15.148,6.739 C15.512,6.857 15.752,6.568 15.970,6.340 C16.956,5.304 17.660,4.080 18.288,2.813 C18.567,2.255 18.807,1.677 19.039,1.098 C19.212,0.669 19.482,0.458 19.970,0.467 L23.933,0.471 C24.051,0.471 24.170,0.472 24.284,0.492 C24.952,0.604 25.134,0.888 24.928,1.534 C24.603,2.547 23.971,3.391 23.353,4.239 C22.692,5.144 21.985,6.018 21.329,6.928 C20.727,7.760 20.775,8.179 21.523,8.901 L21.523,8.901 Z"></path>
  </symbol>
</svg>

<svg width="0" height="0" class="hidden">
  <symbol xmlns="http://www.w3.org/2000/svg" viewBox="0 0 17.78 15.46" id="ic_arrow">
    <path d="M8.44.54a1.07,1.07,0,0,1,1.42,0,.87.87,0,0,1,0,1.29L4.12,7.08H17.5a.92.92,0,1,1,0,1.84H4.12l5.74,5.24a.88.88,0,0,1,0,1.3,1.07,1.07,0,0,1-1.42,0L1,8.64A.83.83,0,0,1,1,7.36Z" transform="translate(-0.7 -0.27)" fill-rule="evenodd" fill="currentColor"></path>
  </symbol>
  <symbol xmlns="http://www.w3.org/2000/svg" viewBox="0 0 19.99 24.01" id="ic_cart">
    <path d="M18.57,6.67A.72.72,0,0,0,17.86,6H14.29V4.49A4.39,4.39,0,0,0,10,0a4.4,4.4,0,0,0-4.29,4.5V6H2.15a.72.72,0,0,0-.71.68L0,23.18a.78.78,0,0,0,.19.57A.67.67,0,0,0,.72,24H19.29a.67.67,0,0,0,.52-.25.78.78,0,0,0,.19-.57ZM7.15,4.49a2.93,2.93,0,0,1,2.86-3,2.93,2.93,0,0,1,2.85,3V6H7.15Zm-5.64,18,1.29-15H5.72V9.2A1.52,1.52,0,0,0,5,10.49,1.46,1.46,0,0,0,6.43,12a1.47,1.47,0,0,0,1.43-1.5A1.52,1.52,0,0,0,7.15,9.2V7.49h5.71V9.2a1.52,1.52,0,0,0-.71,1.29,1.43,1.43,0,1,0,2.85,0,1.52,1.52,0,0,0-.71-1.29V7.49h2.92l1.29,15Z" transform="translate(-0.01 0.01)" fill-rule="evenodd" fill="currentColor"></path>
  </symbol>
  <symbol xmlns="http://www.w3.org/2000/svg" viewBox="0 0 11.99 11.99" id="ic_close">
    <path d="M11.68,1.78,7.47,6l4.21,4.2a1.05,1.05,0,0,1-1.49,1.49L6,7.47,1.78,11.68a1,1,0,0,1-1.48,0,1.06,1.06,0,0,1,0-1.49L4.51,6,.3,1.78A1,1,0,0,1,1.78.3L6,4.51,10.19.3a1.06,1.06,0,0,1,1.49,0A1,1,0,0,1,11.68,1.78Z" transform="translate(0.01 0.01)" fill-rule="evenodd" fill="currentColor"></path>
  </symbol>
  <symbol xmlns="http://www.w3.org/2000/svg" viewBox="0 0 19.67 20" id="ic_instagram">
    <path d="M14.91,20H4.76A4.8,4.8,0,0,1,0,15.16V4.84A4.8,4.8,0,0,1,4.76,0H14.91a4.8,4.8,0,0,1,4.76,4.84V15.16A4.8,4.8,0,0,1,14.91,20ZM9.83,5.81A4.19,4.19,0,1,0,14,10,4.16,4.16,0,0,0,9.83,5.81Zm5.4-2.58A1.29,1.29,0,1,0,16.5,4.52,1.27,1.27,0,0,0,15.23,3.23Z" fill-rule="evenodd" fill="currentColor"></path>
  </symbol>
  <symbol xmlns="http://www.w3.org/2000/svg" viewBox="0 0 13 15" id="ic_location">
    <path d="M6.5,15Q0,9.89,0,6.15A6.22,6.22,0,0,1,6.5,0,6.22,6.22,0,0,1,13,6.15Q13,9.89,6.5,15Zm0-11.11A2.3,2.3,0,0,0,4.14,6.11,2.3,2.3,0,0,0,6.5,8.33,2.3,2.3,0,0,0,8.86,6.11,2.3,2.3,0,0,0,6.5,3.89Z" fill-rule="evenodd" fill="currentColor"></path>
  </symbol>
  <symbol xmlns="http://www.w3.org/2000/svg" viewBox="0 0 18 18" id="ic_menu">
    <path d="M17,10H1A1,1,0,0,1,1,8H17a1,1,0,0,1,0,2Zm0-8H1A1,1,0,0,1,1,0H17a1,1,0,0,1,0,2ZM1,16H17a1,1,0,0,1,0,2H1a1,1,0,0,1,0-2Z" fill-rule="evenodd" fill="currentColor"></path>
  </symbol>
  <symbol xmlns="http://www.w3.org/2000/svg" viewBox="0 0 20 21" id="ic_order">
    <path d="M10.66,19.36V8.78a3.47,3.47,0,0,0,.5-.2l7-2.84a3.05,3.05,0,0,1,.53-.2V16.08l-1,.41-1,.4-3,1.23c-.34.14-.66.26-1,.41s-.65.25-1,.4l-.49.21a3.13,3.13,0,0,0-.52.22ZM1.36,5.54a1.55,1.55,0,0,1,.36.13L4.28,6.73v3.43a.68.68,0,0,0,1.32.19c.06-.21,0-2.71,0-3,.17,0,1.58.63,1.85.73l1.37.57c.16.06.33.14.48.18V19.36l-8-3.28V5.54ZM10,7.59a7.79,7.79,0,0,0,1-.38l2.83-1.16,1.9-.77c.32-.13.65-.26,1-.4l.47-.19a3.8,3.8,0,0,1,.47-.18l-.46-.2C16.71,4.13,14.14,3,14,3S7.05,6.09,6.63,6.19c.1.15,3.36,1.4,3.37,1.4ZM4.9,5.5c-.15,0-1.54-.61-1.86-.74a5.78,5.78,0,0,0-.65-.25h0l.08,0,.12,0,7.39-3a21.72,21.72,0,0,1,2.22,1L4.9,5.5ZM0,4.68V16.32c0,.71.32.79.82,1L6,19.44c.42.17,3.73,1.56,4,1.56a18.79,18.79,0,0,0,2.71-1c.42-.18.87-.36,1.29-.52l5.19-2.13c.52-.21.85-.27.85-1V4.68c0-.72-.32-.79-.82-1s-.87-.36-1.31-.54c-1.44-.57-3.78-1.5-5.2-2.12A19.72,19.72,0,0,0,10,0,8.18,8.18,0,0,0,8.64.49C6.06,1.51,3.43,2.65.85,3.68.33,3.89,0,4,0,4.68Z" fill-rule="evenodd" fill="currentColor"></path>
  </symbol>
  <symbol xmlns="http://www.w3.org/2000/svg" viewBox="0 0 15 15" id="ic_search">
    <path d="M14.63,12.86,11.37,9.6a.1.1,0,0,0,0,0,6.15,6.15,0,1,0-1.76,1.76.1.1,0,0,0,0,0l3.26,3.26a1.25,1.25,0,1,0,1.77-1.77ZM6.17,10.19a4,4,0,1,1,4-4A4,4,0,0,1,6.17,10.19Z" transform="translate(0 0)" fill-rule="evenodd" fill="currentColor"></path>
  </symbol>
  <symbol xmlns="http://www.w3.org/2000/svg" viewBox="0 0 12.99 14.98" id="ic_sort_arrow">
    <path d="M12.75,8.47a.88.88,0,0,0,0-1.19.71.71,0,0,0-1.08,0L7.26,12.11V.85A.8.8,0,0,0,6.49,0a.81.81,0,0,0-.77.84V12.11L1.31,7.28a.72.72,0,0,0-1.09,0,.88.88,0,0,0,0,1.19L6,14.74a.71.71,0,0,0,1.08,0Z" transform="translate(0.01 -0.01)" fill-rule="evenodd" fill="currentColor"></path>
  </symbol>
  <symbol xmlns="http://www.w3.org/2000/svg" viewBox="0 0 32.61 29.99" id="ic_star">
    <path d="M16.68,0,21.9,9.64,33,11.46l-7.86,7.77L26.76,30,16.68,25.17,6.61,30,8.24,19.23.38,11.46,11.47,9.64Z" transform="translate(-0.38)" fill-rule="evenodd" fill="currentColor"></path>
  </symbol>
  <symbol xmlns="http://www.w3.org/2000/svg" viewBox="0 0 34.71 31.9" id="ic_star2">
    <path d="M20.18,3.5l5.22,9.63L36.49,15l-7.86,7.77,1.63,10.76L20.18,28.66,10.11,33.49l1.63-10.76L3.88,15,15,13.13Z" transform="translate(-2.83 -2.45)" stroke="#1c1c1c" fill-rule="evenodd" fill="currentColor"></path>
  </symbol>
  <symbol xmlns="http://www.w3.org/2000/svg" viewBox="0 0 22.58 26.59" id="ic_user">
    <path d="M21.38,24.85v-.28a3.31,3.31,0,0,0-3.28-3.34,5.5,5.5,0,0,1-2-.42L12.55,26a1.46,1.46,0,0,1-1.2.64h0a1.46,1.46,0,0,1-1.2-.64L6.56,20.81a5.82,5.82,0,0,1-2,.42,3.31,3.31,0,0,0-3.27,3.34v.28A14.83,14.83,0,0,1,.06,23.73a4.66,4.66,0,0,1,4.38-3.87,3.94,3.94,0,0,0,4-3.66,8.63,8.63,0,0,1-3.23-6A.75.75,0,0,1,5,10a7.61,7.61,0,0,1-.35-1.05,7.85,7.85,0,0,1,.37-5,5.31,5.31,0,0,1,3.29-3A4.21,4.21,0,0,1,9.28.72,5.67,5.67,0,0,1,11.91.08c3.5,0,6.34,3.12,6.34,7a7.53,7.53,0,0,1-.56,2.87.61.61,0,0,1-.17.24,9.53,9.53,0,0,1-1.68,4.48,7,7,0,0,1-1.55,1.57,3.94,3.94,0,0,0,4,3.65,4.66,4.66,0,0,1,4.38,3.87A14.83,14.83,0,0,1,21.38,24.85ZM16.91,7.05c0-3.09-2.24-5.6-5-5.6A4.43,4.43,0,0,0,9.77,2a.69.69,0,0,1-.28.08,2.76,2.76,0,0,0-.77.13C6.51,2.85,5.29,5.67,6,8.51A6.33,6.33,0,0,0,7.49,5.73a.84.84,0,0,1,.75-.63.83.83,0,0,1,.82.53,1.31,1.31,0,0,0,.41.55,1.27,1.27,0,0,0,.75.25h4.59a2.86,2.86,0,0,1,2.09.9A2.72,2.72,0,0,0,16.91,7.05Zm-.65,1.73h0a1.6,1.6,0,0,0-1.45-1H10.22a2.54,2.54,0,0,1-1.55-.52L8.46,7.1a7.85,7.85,0,0,1-2,2.8,8.18,8.18,0,0,0,1.63,4.17,4.15,4.15,0,0,0,3.22,1.73C14.06,15.8,16.26,12.65,16.26,8.78ZM13,16.88a4.78,4.78,0,0,1-1.67.3,4.71,4.71,0,0,1-1.67-.31,5.39,5.39,0,0,1-2,3.24l3.54,5.13a.11.11,0,0,0,.18,0L15,20.11A5.36,5.36,0,0,1,13,16.88Z" transform="translate(-0.06 -0.08)" fill-rule="evenodd" fill="currentColor"></path>
  </symbol>
  <symbol xmlns="http://www.w3.org/2000/svg" viewBox="0 0 25.01 14.01" id="ic_vkontakte">
    <path d="M21.52,8.9A33.18,33.18,0,0,1,24,11.34a7.22,7.22,0,0,1,.88,1.25c.34.65,0,1.36-.55,1.4H20.65a2.87,2.87,0,0,1-2.32-.93c-.5-.51-1-1.05-1.45-1.58a3.31,3.31,0,0,0-.66-.58.76.76,0,0,0-1.21.29,3.84,3.84,0,0,0-.39,1.69c0,.85-.3,1.07-1.16,1.11a9.43,9.43,0,0,1-5.21-1.11A11.6,11.6,0,0,1,4.74,9.63,44.29,44.29,0,0,1,.12,1.48C-.17.84.05.5.76.48q1.79,0,3.57,0a1.06,1.06,0,0,1,1,.73A21.48,21.48,0,0,0,7.74,5.65a3.73,3.73,0,0,0,.91,1,.55.55,0,0,0,.94-.27,3.06,3.06,0,0,0,.21-.93,13.17,13.17,0,0,0-.06-3.26A1.36,1.36,0,0,0,8.57.93C8.23.87,8.28.74,8.45.54A1.31,1.31,0,0,1,9.56,0h4.12c.65.13.79.42.88,1.06V5.58c0,.25.12,1,.58,1.16s.6-.17.82-.4a14,14,0,0,0,2.32-3.53c.28-.55.52-1.13.75-1.71A.88.88,0,0,1,20,.47h4a2,2,0,0,1,.35,0c.67.11.85.4.65,1a9.82,9.82,0,0,1-1.58,2.71c-.66.9-1.36,1.78-2,2.69s-.56,1.25.19,2Z" transform="translate(0 0.01)" fill-rule="evenodd" fill="currentColor"></path>
  </symbol>
</svg>
